X:1
T:Morte refert vitam
T:Daniel Friderici
T:Source : Bicinia sacra---Rostock---J.Richelius---1642. Editor : André Vierendeels (28/06/17).
T:Notes : Original clefs : C1, C1 Editorial accidentals above bthe staff Original note values have been halved in 3-beat measures m 18  in S2 : one measure too many in original print
T:Morte refert vitam
T:©
T:©
C:Daniel Friderici
Z:©
%%score [ 1 2 ]
L:1/8
Q:1/4=119
M:2/2
K:C
V:1 treble nm="Soprano 1" snm="S 1"
V:2 treble nm="Soprano 2" snm="S 2"
V:1
 F8- | F4 E2 D2 | ^C2 D4 C2 | D4 F2 G2 | A2 B2 c4 | B4 ABcA | B2 c2 B4 | A8 :: d2 d2 d2 ^c2 | %9
w: Mor-||* * te,|mor- te re-|fert vi- tam|Chri- * * * *||stus,|qui cre- dit in|
 d4 e4 | c2 c2 c2 d2 | c4 A2 B2 | G4 G2 A2 | G4 E4 |[M:3/2] A8 ^F4 | G8 E4 |"^-natural" F4 D4 G4 | %17
w: ip- sum,|qui cre- dit in|ip- sum, qui|cre- dit in|ip- sum,|vi- vet|in ae-|ter- nos post|
 C8 F4 | D4 E4 ^C4 |[M:2/2] D4 d4 | c2 B2 A2 G2 | F3 E/D/ E4 | D4 D4 | F2 G2 A2 B2 | %24
w: su- a|Fa- ti di-|es, post|su- a Fa- ta|di _ _ _|es, post|su- a Fa- ta|
 cA d3 ^c/B/ c2 | d8 :| %26
w: di- * * * * *|es.|
V:2
 z4 A4- | A4 G2 F2 | E2 D2 E4 | D2 A4 B2 | c4 A4 | d4 c4 | B2 A3 ^G/^F/ G2 | A8 :: G2 G2 G2 A2 | %9
w: Mor-|||te, mor- te|re- fert|vi- am|Chri- * * * *|stus,|qui cre- dit in|
 G4 E2 A2- | A2 A2 A2 G2 | AGAB c2 G2 | d2 d2 d2 c2 | B4 e4 |[M:3/2] ^c8 d4 | B8 c4 | A4 A4 _B4 | %17
w: ip- sum, qui|_ cre- dit in|ip- * * * sum, qui|cre- dit in ip-|* dum,|vi- vet|in ae-|ter- nos post|
 G8 A4 | F4 G4 E4 |[M:2/2] ^F4 D4 | F2 G2 A2 B2 | cA d3 ^c/B/ c2 | d4 d4 | c2 B2 A2 G2 | %24
w: su- a|Fa- ta di-|es, post|su- a Fa- ta|di- * * * * *|es, post|su- a Fa- ta|
 F3 E/D/ E4 | D8 :| %26
w: di- * * *|es.|

